#include "../lib/ShaderAPI.h"
#include "../lib/Color.h"

shader apColorConstruct_1
[[ string help = "Create color from split inputs" ]]
(
    COLOR_SPLIT_INPUTS,

    COLOR_ALPHA_OUTPUTS
)
{
    if (!useSplitInputs)
        resultRGBA.RGB = inputRGB;
    else 
    {
        resultRGBA.RGB[0] = inputR;
        resultRGBA.RGB[1] = inputG;
        resultRGBA.RGB[2] = inputB;
    }
    resultRGBA.A = inputA;

    COLOR_ALPHA_OUTPUTS_SET;
} 