#include "../lib/ShaderAPI.h"
#include "../lib/Color.h"

shader apColor_1
[[ string help = "Simple color pass-through operation" ]]
(
    COLOR("", "Color", inputRGB, COLOR_DEF, int connectable = 0),
    
    COLOR_OUTPUTS
)
{
    resultRGB = inputRGB;
    COLOR_OUTPUTS_SET;
} 