#include "../lib/ShaderAPI.h"
#include "../lib/Float.h"

shader apFloatPower_1
[[ string help = "Float A to the power of float B" ]]
(
    FLOAT_TAG_INPUTS(A),
    FLOAT_TAG_INPUTS(B),
    CHECKBOX("", "Clamp Result", clampResult, 1,
             string help = "Clamp maximum to 1.0"),

    FLOAT_OUTPUTS
)
{
    resultF = pow(inputF_A, inputF_B);

    if (clampResult)
        resultF = min(1.0, resultF);

    FLOAT_OUTPUTS_SET;
}