#include "../lib/ShaderAPI.h"
#include "../lib/Float.h"

shader apFloatMin_1
[[ string help = "Returns min value between float A and float B" ]]
(
    FLOAT_TAG_INPUTS(A),
    FLOAT_TAG_INPUTS(B),

    FLOAT_OUTPUTS
)
{
    resultF = min(inputF_A, inputF_B);
    FLOAT_OUTPUTS_SET;
}