#include "../lib/ShaderAPI.h"
#include "../lib/Float.h"
#include "../lib/Math.h"

shader apFloatDivide_1
[[ string help = "Divide float A and float B. If Input B is 0.0 then returns 0.0" ]]
(
    FLOAT_TAG_INPUTS(A),
    FLOAT_TAG_INPUTS(B),

    FLOAT_OUTPUTS
)
{
    resultF = SafeDivide(inputF_A, inputF_B); 

    FLOAT_OUTPUTS_SET;
}