#include "../lib/ShaderAPI.h"
#include "../lib/Float.h"

shader apFloatMix_1
[[ string help = "Mix float A and float B given a float mix value" ]]
(
    FLOAT_TAG_INPUTS(A),
    FLOAT_TAG_INPUTS(B),
    FLOAT("", "Mix Value", mixVal, 0.5),

    FLOAT_OUTPUTS
)
{
    resultF = mix(inputF_A, inputF_B, mixVal);
    FLOAT_OUTPUTS_SET;
}