#include "../lib/ShaderAPI.h"
#include "../lib/Float.h"
#include "../lib/Params.h"

shader apFloatAdd_1
[[ string help = "Add float A and float B" ]]
(
    FLOAT_TAG_INPUTS(A),
    FLOAT_TAG_INPUTS(B),
    CHECKBOX("", "Clamp Result", clampResult, 1,
             string help = "Clamp minimum to 0.0"),

    FLOAT_OUTPUTS
)
{
    resultF = inputF_A + inputF_B; 

    if (clampResult)
        resultF = min(1.0, resultF);

    FLOAT_OUTPUTS_SET;
}