#include "../lib/ShaderAPI.h"
#include "../lib/Float.h"

shader apFloat_1
[[
    string help = "Simple float pass-through operation"
]]
(
    FLOAT_INPUTS,

    FLOAT_OUTPUTS
)
{
    resultF = inputF;
}