#include "../lib/ShaderAPI.h"
#include "../lib/Manifold.h"

shader apManifoldTransform_1
[[ string help = "Create color from split inputs" ]]
(
    MANIFOLD_INPUT,
    MANIFOLD_XFORM_PARAMS,
    MANIFOLD_3D_OUTPUTS
)
{
    MANIFOLD_TRANSFORM;

    MANIFOLD_3D_OUTPUTS_SET;
} 