#include "../lib/ShaderAPI.h"
#include "../lib/Vector.h"
#include "../lib/Float.h"

shader apVectorLength_1
[[
    string help = "Return length of a vector",
]]
(
    VECTOR_INPUTS,

    FLOAT_OUTPUTS
)
{
    resultF = length(inputV);
} 