#include "lib/ShaderAPI.h"
#include "lib/Float.h"

shader apFloatMax_1
[[
    string help = "Returns max value between Input A and Input B"
]]
(
    FLOAT_PARAM_TAG_INPUTS(A),
    FLOAT_PARAM_TAG_INPUTS(B),

    FLOAT_PARAM_OUTPUTS
)
{
    resultF = max(inputF_A, inputF_B);
}