#include "../lib/ShaderAPI.h"

shader apFloatMultiply
[[
    string help = "Multiply Input A and Input B"
]]
(
    float inputA = 0.0
    [[ string label = "Input A" ]],
    float inputB = 0.0
    [[ string label = "Input B" ]],

    output float resultF = 0.0
)

{
    resultF = inputA * inputB; 
}