#include "lib/ShaderAPI.h"
#include "lib/Float.h"

shader apFloatAdd_1
[[
    string help = "Add float A and float B"
]]
(
    FLOAT_PARAM_TAG_INPUTS(A),
    FLOAT_PARAM_TAG_INPUTS(B),

    FLOAT_PARAM_OUTPUTS
)
{
    resultF = inputF_A + inputF_B; 
}